!!!COM: Fe/licien David
!!!CNT: Francais
!!!TXO: Francais
!!!OTL: Le Nuage
!!!LYR: Edouard Plouvier
!!!ENC: Jacob Pegg
!!!YOR: Romantic French Song 1830-1870, David Tunley, ed., New York: Garland Publishing, Inc., 1995
!!!ODT: 1847/
!!NB: Vocal melody and text only encoded.
**kern	**silbe
*clef G2	*
*k[b-e-]	*
*M6/8	*
=5	=5
4r	.
8r	.
8r	.
{8b-	{Ou\
8cc	vas~
=6	=6
4.dd	~tu,
4dd	blanc
8dd	nu-
=7	=7
4.dd	-a-
4.dd	-ge
=8	=8
8dd	Qui
8a	se-
8b-	-ras
4cc	loin
8dd	de/-
=9	=9
4.g}	-main,}
8r	.
{8b-	{Le
8cc	sais~
=10	=10
4.dd	~tu,
(8dd	blan-
8cc)	-che
8dd	i-
=11	=11
!!grace note is supposed to be 'durationless.'
!!timing error - ?
(4.een	-ma-
8ffq	|
4.ff)	-ge
=12	=12
8gg	De
8ee-	tout
8dd	de/-
4cc	-sir
8dd	hu-
=13	=13
[4.b-	-main?
4b-]}	|}
{8b-	{Dans
=14	=14
4ee-	l'e/-
8ee-	-ther
(8ee-	que
8cc)	|
8dd	tu
=15	=15
(4ee-	voi-
8ff)	|
4.gg	-le
=16	=16
8gg	N'es
8ee-	tu
8dd	pas
4cc	a-
8b-	-mou-
=17	=17
4.a	-reux
4dd	Et
8dd	ja
=18	=18
(4dd	loux
8g)	|
4cc	d'u-
8cc	ne e/-
=19	=19
(4cc	-toi-
8f)	|
4b-	-le
8b-	Que
=20	=20
(8cc	tu
8a)	|
8g	cache
(8g	a
8f#)	|
8dd;	nos
=21	=21
[4.g	yeux?
4g]}	|}
8r	.
=25	=25
4r	.
8r	.
8r	.
{8b-	{N'es~
8cc	~tu
=26	=26
4.dd	pas,
4dd	blanc
8dd	nu-
=27	=27
4.dd	-a-
4.dd	-ge,
=28	=28
8dd	For-
8a	-me
8b-	de
4cc	tous
8dd	les
=29	=29
4.g}	pleurs}
8r	.
{(8b-	{Que
8cc)	|
=30	=30
4dd	la
8dd	ter-
(8dd	-res-
8cc)	|
8dd	-tre
=31	=31
!!ditto from m. 11
(4.een	pla-
8ffq	|
4.ff)	-ge
=32	=32
8gg	Re/-
8ee-	-pand
8dd	sur
4cc	ses
8dd	dou-
=33	=33
[4.b-	-leurs?
4b-]}	|}
{8b-	{A-
=34	=34
4ee-	-vec
8ee-	cet-
(8ee-	-te
8cc)	|
8dd	cou-
=35	=35
(4ee-	-ron-
8ff)	|
4.gg	-ne
=36	=36
8gg	Des
8ee-	coeurs
8dd	las
4cc	de
8b-	souf-
=37	=37
4.a	-frir,
4dd	Por-
8dd	-te au
=38	=38
(4dd	Dieu
8g)	|
4cc	qui
8cc	par-
=39	=39
(4cc	-don-
8f)	|
4b-	-ne
8b-	Les
=40	=40
(8b-	pleues
8a)	|
8a	du
(8g	re-
8f#)	|
8dd;	-pen-
=41	=41
[4.g	-tir!
4g]}	|}
8r	.
=45	=45
4r	.
8r	.
8r	.
{8b-	{Aus-
8cc	|
=46	=46
4dd	-si
8dd	je
4dd	suis
8dd	la
=47	=47
4.dd	tra-
4.dd	-ce
=48	=48
8dd	Du
8a	nu-
8b-	-a-
4cc	-ge
8dd	chang-
=49	=49
4.g}	-eant,}
8r	.
{(8b-	{Qui
8cc)	|
=50	=50
4dd	se\-
8dd	-me
(8dd	dans
8cc)	|
8dd	l'es-
=51	=51
!!ditto from m. 11
(4.een	-pa-
8eenq	|
4.ff)	-ce
=52	=52
8ff	Fleur
8ee-	de
8dd	gaze
4cc	et
8dd	d'ar-
=53	=53
[4.b-	-gent
4b-]}	|}
{8b-	{Puis,
=54	=54
4ee-	un
8ee-	ins-
(8ee-	-tant
8cc)	|
8dd	je
=55	=55
(4ee-	re\-
8ff)	|
4.gg	-ve
=56	=56
8gg	A
8ee-	tous
8dd	nos
4cc	voeux
8b-	per-
=57	=57
4.a	-dus;
4dd	Quand
8dd	mon
=58	=58
(4dd	front
8g)	|
4cc	se
8cc	re-
=59	=59
(4cc	-le\-
8f)	|
4.b-	-ve
=60	=60
8b-	Le
8a	nu-
8g	-a-
(8g	-ge
8f#)	|
8dd;	n'est
=61	=61
[4.g	plus!
4g]}	|}
8r	.
*-	*-
